X: 546
%
T: Perthshire Volunteers
C:Miss Stirling
O:Scotland
B:Keith Norman MacDonald : "The Skye collection of the best reels & strathspeys extant" : 1887
Z:Ralph Palmer
R:Strathspey
M:C
L:1/8
K:A
A | E>A c/2d/2e {/d}c2 Ac | {Bc}d>B d/2c/2B/2A/2 G<BB>d | {/d}c>A c/2d/2e {/d}c2 A<c | e<Be>d c<AA ::
g | {/g}a>e a/2g/2f/2e/2 {/g}a2 (e<c) | {/c}d>B d/2c/2B/2A/2 G<BB>g | a>e a/2g/2f/2e/2 {/g}a2 e<c | d>c d/2c/2B/2A/2 E<AA>d |
c>eG>e F>dE>c | d>B d/2c/2B/2A/2 G<BB>d | c>ed>f e<ag<b | a/2g/2f/2e/2 a>e {/d}cAA |]


